X: 1
T: Eanach Mhic Coilin
R: reel
M: 4/4
L: 1/8
K: Emin
GA|Beed BAGA|Bdef g3 z|Beed BAGA|BGdB A2GA|
Beed BAGA|Bdef g3 a|bgfa gfed |efdB A2||
GA|BE E2 DEGA|BEE2 d2 BA|BE E2 DEGA|BGdB A2 GA|
BEE2 DEGA|BEE2 d2 BA|BEE2 DEGA| BGdB A2||


Tune 78	Setting 12569

